X:1
T:Ave Regina coelorum - Grassi
T:James Gibb editions
T:#
%%score { 1 | 2 } 3
L:1/8
Q:1/4=88
M:3/4
K:Bb
V:1 treble nm="Soprano I" snm="S"
V:2 treble 
V:3 treble nm="Alto" snm="A"
V:1
"^Ave Regina coelorum, op.17/2""^Ciro Grassi\n (1868-1952)""^andantino"!pp! !>!d6 |"^," c6 | %2
w: A-|ve,|
 !>!e6 |"^," d4 d2 | e2"^," c2 d2 | (f2 c2 d2 | B4 AB) |"^," c6 | c4 d2 | e2 c2"^," d2 | e4 f2 | %11
w: a-|ve Re-|gi- na coe-|lo\- * *||rum,|A- ve|Do- mi- na|An- ge-|
 e2"^," d4 |[M:3/4]!f! g4 g2 | f2"^," f4 |!p! e4 e2 | d2"^," d4 | d4 d2 | (G2 A2) B2 | (d2 c2) B2 | %19
w: lo- rum:|Sal- ve|ra- dix,|sal- ve|por- ta,|ex qua|mun\- * do|lux * est|
"^rall."[Q:1/4=85] (B2[Q:1/4=82] A[Q:1/4=80]G[Q:1/4=80] A2) ||[M:4/4]"^," B4!ff! B3 B | %21
w: or\- * * *|ta: Gau- de|
[M:4/4][Q:1/4=80][Q:1/4=80] g4"^," g2 gg | (f4 d2 =e2) | %23
w: Vir- go, glo- ri-|o\- * *|
"^," f4!mf!"^poco più mosso"[Q:1/4=88] c2 d2 | _e4"^," d4 | c2 d2 (e4 | d6 c2) | d8 | z8 | %29
w: sa, su- per|o- mnes|spe- ci- o\-||sa:||
 d4 d2 A2 |[Q:1/4=88][Q:1/4=88] c4 c2 G2 | %31
w: Va- le o|val- de de-|
[Q:1/4=86] (B3[Q:1/4=84] c[Q:1/4=83] d[Q:1/4=82]e[Q:1/4=81] f[Q:1/4=80]e/[Q:1/4=80]d/) | %32
w: co\- * * * * * *|
"^rall.""^,"[Q:1/4=80] c4!pp!!<(! B2 B2!<)! |!>(! (d3 c B4)!>)! | A4 z4 | d4 _e2 e2 | (f8- | %37
w: ra, et pro|no\- * *|bis|Chri- stum ex-|o\-|
 f2 ed c4) | !fermata!d8 |] %39
w: |ra.|
V:2
!pp! F6 |"^," A6 | (!>!G4 A2) |"^," B4 B2 | G2"^," A2 B2 | (A2 G2 F2 | G6) |"^," A6 | A4 F2 | %9
w: A-|ve,|a\- *|ve Re-|gi- na coe-|lo\- * *||rum,|A- ve|
 G2 A2"^," =B2 | c4 A2 | c2"^," B4 |[M:3/4]!f! B4 (Bc) | d2"^," d4 |!p! G4 (GA) | B2 B4 | %16
w: Do- mi- na|An- ge-|lo- rum:|Sal- ve *|ra- dix,|sal- ve *|por- ta,|
 z2 B2 A2 | (G2 ^F2) G2 | (B2 A2) G2 | c6 ||[M:4/4]"^," B4!ff! G3 G |[M:4/4] B2"^," B4 cc | %22
w: ex qua|mun\- * do|lux * est|or-|ta: Gau- de|Vir- go, glo- ri-|
 (d4 B4) | A4 z4 |!mf! G2 A2 B4 |"^," A4 G2 A2 | (B3 A G4) | ^F8 | z8 | z4 z2 F2 | G4 G2 G2 | %31
w: o\- *|sa,|su- per o-|mnes spe- ci-|o\- * *|sa:||o|val- de de-|
 (F2 E2 F2 B2) |"^," A4!pp!!<(! G2 G2!<)! |!>(! (B3 A G4)!>)! | ^F4 z4 | z4 B4 | c2 c2 (d2 BA | %37
w: co\- * * *|ra, et pro|no\- * *|bis|Chri-|stum ex- o\- * *|
 G6 A2) | !fermata!B8 |] %39
w: |ra.|
V:3
!pp! !>!B,6 |"^," F6 | (!>!E4 C2) | B,6 | z4 B2 | F2 E2 D2 | G6 |"^," F6 | F4 D2 | C2 F2"^," D2 | %10
w: A-|ve,|a\- *|ve|Re-|gi- na coe-|lo-|rum,|A- ve|Do- mi- na|
 C4 F2 | B,4"^," B,2 |[M:3/4]!f! (E3 F) (GA) | B2"^," B4 |!p! (E2 CD) (EF) | G2 G4 | z2 G2 F2 | %17
w: An- ge-|lo- rum:|Sal\- * ve *|ra- dix,|sal\- * * ve *|por- ta,|ex qua|
 (E2 D2) G2 | (=E2 F2) G2 | F6 ||[M:4/4]"^," B,4!ff! E3 E |[M:4/4] E2"^," E4 EE | (B,2 B3 A G2) | %23
w: mun\- * do|lux * est|or-|ta: Gau- de|Vir- go, glo- ri-|o\- * * *|
 F4 z4 | z4!mf! D2 E2 | F4 C4 | G3 F E4 |"^," D8 | G4 G4- | G2 (F=E) (F4- | F2 D2) _E2 E2 | %31
w: sa,|su- per|o- mnes|spe- ci- o-|sa:|Va- le|* o * val\-|* * de de-|
 (D2 C2 B,2 D2) | F4 z4 | z4!pp! G2 G2 | (D4 =E4) | ^F4!<(! !>!G4 | A2!<)! A2 (B2 D2 | %37
w: co\- * * *|ra,|et pro|no\- *|bis Chri-|stum ex- o\- *|
!>(! E6 F2)!>)! | !fermata!B,8 |] %39
w: |ra.|

